X: 1
T: GAME COCK -- REEL
B: Ryan's Mammoth Collection of Fiddle Tunes
R: REEL
M: C|
L: 1/8
Z: Contributed 20000427020636 by Ivan Bradley bradleyi:peoplepc.com
K: D
vFAdA BAdA | BdAF EE/E/EG | FAdA BAdA | BdAF (3DDD D2 |
fedc defd  | geaf (3eeeeg | fedc defe | dBGE (3DDD D2 |]
fedc defd  | geaf (3eeeeg | fedc defe | dBAF (3DDD D2 |
fedc defd  | geaf (3eeeeg | faef defe | dBAF (3DDD D2 :|
